dist/icons/svgs/file-invoice-outline.svg

<svg xmlns="http://www.w3.org/2000/svg" width="24" height="24" fill="currentcolor" class="icon-file-invoice-outline" viewBox="0 0 24 24">
  <path d="M7.5 20.125H17.5C17.8125 20.125 18.125 19.8516 18.125 19.5V8.25H15C14.2969 8.25 13.75 7.70312 13.75 7V3.875H7.5C7.14844 3.875 6.875 4.1875 6.875 4.5V19.5C6.875 19.8516 7.14844 20.125 7.5 20.125ZM5 4.5C5 3.13281 6.09375 2 7.5 2H13.9453C14.6094 2 15.2344 2.27344 15.7031 2.74219L19.2578 6.29688C19.7266 6.76562 20 7.39062 20 8.05469V19.5C20 20.9062 18.8672 22 17.5 22H7.5C6.09375 22 5 20.9062 5 19.5V4.5ZM8.125 6.375C8.125 6.0625 8.39844 5.75 8.75 5.75H11.875C12.1875 5.75 12.5 6.0625 12.5 6.375C12.5 6.72656 12.1875 7 11.875 7H8.75C8.39844 7 8.125 6.72656 8.125 6.375ZM8.125 8.875C8.125 8.5625 8.39844 8.25 8.75 8.25H11.875C12.1875 8.25 12.5 8.5625 12.5 8.875C12.5 9.22656 12.1875 9.5 11.875 9.5H8.75C8.39844 9.5 8.125 9.22656 8.125 8.875ZM12.5 17.625C12.5 17.3125 12.7734 17 13.125 17H16.25C16.5625 17 16.875 17.3125 16.875 17.625C16.875 17.9766 16.5625 18.25 16.25 18.25H13.125C12.7734 18.25 12.5 17.9766 12.5 17.625ZM9.375 10.75H15.625C16.2891 10.75 16.875 11.3359 16.875 12V14.5C16.875 15.2031 16.2891 15.75 15.625 15.75H9.375C8.67188 15.75 8.125 15.2031 8.125 14.5V12C8.125 11.3359 8.67188 10.75 9.375 10.75Z"/>
</svg>

<svg xmlns="http://www.w3.org/2000/svg" width="24" height="24" fill="currentColor" class="icon-file-invoice-outline" viewBox="0 0 24 24">
  <path d="M7.5 20.125h10a.64.64 0 0 0 .625-.625V8.25H15c-.703 0-1.25-.547-1.25-1.25V3.875H7.5a.64.64 0 0 0-.625.625v15c0 .352.273.625.625.625M5 4.5C5 3.133 6.094 2 7.5 2h6.445c.664 0 1.29.273 1.758.742l3.555 3.555c.469.469.742 1.094.742 1.758V19.5c0 1.406-1.133 2.5-2.5 2.5h-10A2.47 2.47 0 0 1 5 19.5zm3.125 1.875c0-.312.273-.625.625-.625h3.125c.313 0 .625.313.625.625a.64.64 0 0 1-.625.625H8.75a.617.617 0 0 1-.625-.625m0 2.5c0-.312.273-.625.625-.625h3.125c.313 0 .625.313.625.625a.64.64 0 0 1-.625.625H8.75a.617.617 0 0 1-.625-.625m4.375 8.75c0-.312.273-.625.625-.625h3.125c.313 0 .625.313.625.625a.64.64 0 0 1-.625.625h-3.125a.617.617 0 0 1-.625-.625M9.375 10.75h6.25c.664 0 1.25.586 1.25 1.25v2.5c0 .703-.586 1.25-1.25 1.25h-6.25c-.703 0-1.25-.547-1.25-1.25V12c0-.664.547-1.25 1.25-1.25"/>
</svg>
